frontend/public/svg/interface/left-align-2.svg

<svg width="111" height="121" viewBox="0 0 111 121" fill="none" xmlns="http://www.w3.org/2000/svg">
<g clip-path="url(#clip0)">
<path d="M4.15825 54.7611C4.28766 38.6278 4.42353 22.4933 4.56588 6.3573C4.60397 5.13897 4.73375 3.92525 4.95412 2.72662C5.0046 2.10442 5.29084 1.5255 5.75372 1.10941C6.2166 0.693303 6.82076 0.4718 7.44142 0.490711C8.94519 0.44062 10.1002 1.16535 10.4082 2.63752C10.8035 4.59922 11.0714 6.58476 11.2099 8.58146C13.208 34.7044 12.5208 60.8488 11.8654 86.9968C11.6712 94.785 11.5839 102.571 10.4871 110.3C10.3245 111.847 10.0432 113.379 9.64595 114.883C9.26115 116.272 8.64573 117.585 7.82577 118.768C5.97519 121.261 2.94242 120.854 1.82624 117.99C1.35492 116.868 1.16816 115.645 1.28272 114.431C2.6629 104.82 2.78324 95.1389 3.02977 85.4648C3.28859 75.2292 3.50083 64.9928 3.73377 54.7592L4.15825 54.7611Z" fill="black"/>
<path d="M65.9633 100.74C57.6739 101.138 49.3863 101.602 41.0936 101.91C36.5642 102.079 32.0219 102.003 27.486 101.988C26.6004 101.972 25.7204 101.843 24.8667 101.607C24.0479 101.434 23.3099 100.992 22.7698 100.35C22.2297 99.7071 21.9186 98.9017 21.8857 98.0619C21.8967 97.2195 22.1845 96.4037 22.7042 95.7427C23.2239 95.0818 23.9464 94.6114 24.7592 94.4065C25.6209 94.2107 26.5017 94.1138 27.385 94.1164C45.7369 93.3188 64.0892 92.5291 82.4419 91.7471C89.6288 91.4414 96.8163 91.1434 104.005 90.8923C105.215 90.8201 106.428 90.9242 107.608 91.202C108.488 91.3835 109.278 91.8662 109.844 92.5688C110.408 93.2707 110.714 94.1483 110.707 95.0519C110.72 95.8963 110.466 96.7224 109.981 97.412C109.496 98.1016 108.806 98.6181 108.009 98.8868C107.079 99.2309 106.107 99.4508 105.12 99.5412C102.475 99.7722 99.8232 99.9751 97.1696 100.055C86.7707 100.364 76.3699 100.62 65.9697 100.897L65.9633 100.74Z" fill="black"/>
<path d="M47.5664 56.9219C52.7687 56.9219 57.9711 56.8874 63.1721 56.9479C64.3832 56.9694 65.5854 57.1622 66.7423 57.5209C67.5136 57.7598 68.1976 58.2203 68.7113 58.8457C69.2245 59.4711 69.5448 60.2339 69.6321 61.0402C69.7188 61.8463 69.5693 62.6605 69.2018 63.3822C68.8336 64.1038 68.2636 64.7014 67.5615 65.1011C66.3127 65.7854 64.9145 66.1491 63.4918 66.1595C52.651 65.9422 41.8153 65.5994 30.9751 65.267C29.9803 65.2383 28.9916 65.0991 28.0271 64.8519C27.2604 64.701 26.5657 64.2968 26.0537 63.7035C25.5417 63.11 25.2417 62.3616 25.2014 61.5771C25.1724 60.8451 25.3735 60.1226 25.7761 59.5119C26.1787 58.9013 26.7623 58.4337 27.4441 58.1755C28.4633 57.7553 29.5439 57.5053 30.6432 57.4352C36.281 57.1685 41.9227 56.9941 47.5638 56.7847L47.5664 56.9219Z" fill="black"/>
</g>
<defs>
<clipPath id="clip0">
<rect width="110" height="121" fill="white" transform="translate(0.777344)"/>
</clipPath>
</defs>
</svg>

<svg xmlns="http://www.w3.org/2000/svg" width="111" height="121" fill="none" viewBox="0 0 111 121"><g fill="#000" clip-path="url(#a)"><path d="M4.158 54.761q.195-24.2.408-48.404c.038-1.218.168-2.432.388-3.63a2.44 2.44 0 0 1 .8-1.618A2.4 2.4 0 0 1 7.44.491c1.504-.05 2.66.674 2.967 2.147.396 1.961.663 3.947.802 5.943 1.998 26.123 1.31 52.268.655 78.416-.194 7.788-.281 15.574-1.378 23.303a30.4 30.4 0 0 1-.841 4.583c-.385 1.389-1 2.702-1.82 3.885-1.85 2.493-4.884 2.086-6-.778a7.4 7.4 0 0 1-.543-3.559c1.38-9.611 1.5-19.292 1.747-28.966.259-10.236.47-20.472.704-30.706zm61.805 45.979c-8.29.398-16.577.862-24.87 1.17-4.529.169-9.071.093-13.607.078a10.6 10.6 0 0 1-2.62-.381 3.75 3.75 0 0 1-2.096-1.257 3.8 3.8 0 0 1-.884-2.288 3.83 3.83 0 0 1 .818-2.32 3.8 3.8 0 0 1 2.055-1.336 11.7 11.7 0 0 1 2.626-.29q27.528-1.196 55.057-2.369a2821 2821 0 0 1 21.563-.855c1.21-.072 2.423.032 3.603.31.88.181 1.67.664 2.236 1.367.564.702.87 1.58.863 2.483a4 4 0 0 1-.726 2.36 3.96 3.96 0 0 1-1.972 1.475c-.93.344-1.902.564-2.889.654-2.645.231-5.297.434-7.95.514-10.4.309-20.8.565-31.2.842zM47.566 56.922c5.203 0 10.405-.035 15.606.026 1.211.021 2.413.214 3.57.573.772.239 1.456.7 1.97 1.325a4.167 4.167 0 0 1-1.15 6.255 8.6 8.6 0 0 1-4.07 1.058c-10.841-.217-21.677-.56-32.517-.892a13.4 13.4 0 0 1-2.948-.415 3.5 3.5 0 0 1-1.973-1.149 3.53 3.53 0 0 1-.853-2.126 3.5 3.5 0 0 1 .575-2.065 3.47 3.47 0 0 1 1.668-1.337c1.02-.42 2.1-.67 3.2-.74 5.637-.267 11.279-.44 16.92-.65z"/></g><defs><clipPath id="a"><path fill="#fff" d="M.777 0h110v121h-110z"/></clipPath></defs></svg>
